X: 6
T: No_105_Song_of_a_Returning_War_Party.krn
N: Derived from No_105_Song_of_a_Returning_War_Party.krn
%%abc-version 2.0
%%abcx-abcm2ps-target-version 5.9.1 (29 Sep 2008)
%%abc-creator hum2abc beta
%%abcx-conversion-date 2019/03/15 08:36:13
%%humdrum-veritas 2263956893
%%humdrum-veritas-data 2086717916
%%linebreak <none>
%%barnumbers 0
L: 1/8
M: 2/4
K: C clef=bass
[K:clef=bass][M:2/4]A,A, A,/ z/ A, [I:setbarnb 2]| 
A,2z2 ||  
[M:7/8]A,A,A,/ z/ A,/ z/ A, z B, ||  
[M:2/4]B,2A,B, ||  
[M:3/4]A,4z2 ||  
[M:2/4]B,A, A,/ z/ A, | 
A,2z2 | 
B,A, A,/ z/ E, | 
E, z A,/ z/ G,/ z/ | 
A, z A,E, | 
E,3z | 
G,E, E,E, | 
D,2z2 ||  
[M:7/8]E,D,D,/ z/ A,,/ z/ A,, z D, ||  
[M:2/4]B,,2z D, ||  
[M:3/4]A,,4z2 ||  
[M:2/4]B,,A,, A,,B,, | 
B,,2B,, z :|]  
A,,4 |]  



